X:1
T:Wild Women Don't Have the Blues
M:2/4
L:1/8
K:G
 =f2 f2| =fd ed| =fd e d-| d=f e d-| d2 z d| =fd ed| =fd ed| =fg e|\
 d-| d2 z2| ge ge| ge g g-| gg g g-| g2 z d| =fd ed| =fd ed| z =ff e-|\
 e2 z e| g2 g3.99999962500005/5.99999925000009 f3.99999962500005/5.99999925000009 e3.99999962500005/5.99999925000009|\
 g e3| z d2 d| cd c_B| G G3-| G4|

